X: 9232
T: Dan Collins' Father's
R: jig
M: 6/8
K: Dmajor
|:d2A BAB|def a3|aba f2e|dBB BAB|
dAA BAB|def a3|aba f2e|1 edc dfe:|2 edc d2e||
|:faa faa|afe f3|aba f2e|dBB BAB|
d2A BAB|def a2f|aba f2e|1 edc d2g:|2 edc dfe||

